icons/communication/message-arrow-right-24.svg

<svg width="24" height="24" viewBox="0 0 24 24" fill="none" xmlns="http://www.w3.org/2000/svg">
<path d="M14.3573 12.2947L12.2224 14.6389C12.0797 14.7824 11.9965 14.9795 11.9908 15.1875C11.985 15.3955 12.0572 15.5975 12.1917 15.7495C12.3262 15.9015 12.5121 15.9913 12.7089 15.9994C12.9057 16.0075 13.0976 15.9331 13.2428 15.7926L16.7629 12.082C16.8377 12.0082 16.8974 11.9188 16.9382 11.8196C16.979 11.7204 17 11.6134 17 11.5052C17 11.397 16.979 11.29 16.9382 11.1907C16.8974 11.0915 16.8377 11.0022 16.7629 10.9283L13.2428 7.21781C13.1713 7.14587 13.087 7.08961 12.9948 7.05228C12.9026 7.01495 12.8043 6.9973 12.7056 7.00034C12.6068 7.00337 12.5097 7.02705 12.4197 7.06999C12.3297 7.11293 12.2486 7.17428 12.1812 7.2505C12.1138 7.32672 12.0613 7.4163 12.0269 7.51407C11.9924 7.61183 11.9767 7.71583 11.9805 7.82007C11.9843 7.9243 12.0077 8.0267 12.0492 8.12135C12.0907 8.216 12.1496 8.30102 12.2224 8.3715L14.3573 10.7157H8.74739C8.54917 10.7157 8.35907 10.7989 8.2189 10.9469C8.07874 11.095 8 11.2958 8 11.5052C8 11.7146 8.07874 11.9154 8.2189 12.0634C8.35907 12.2115 8.54917 12.2947 8.74739 12.2947H14.3573Z" fill="black"/>
<path fill-rule="evenodd" clip-rule="evenodd" d="M3.00001 11.5C3.00001 12.8408 3.27821 14.1184 3.78057 15.2767L2.08244 19.3131C1.7836 20.0234 2.36666 20.7906 3.13105 20.6928L8.3135 20.03C9.57728 20.6513 10.9989 21 12.5 21C17.7467 21 22 16.7467 22 11.5C22 6.25329 17.7467 2 12.5 2C7.2533 2 3.00001 6.25329 3.00001 11.5ZM12.5 3.5C8.08173 3.5 4.50001 7.08172 4.50001 11.5C4.50001 12.7385 4.78091 13.9092 5.28177 14.9539C5.39825 15.1969 5.37227 15.4713 5.23708 15.6828L3.80161 19.0948L8.34898 18.5132C8.48487 18.4958 8.61691 18.516 8.73469 18.5656C8.75906 18.5752 8.78317 18.5862 8.80691 18.5986C9.91092 19.1742 11.1663 19.5 12.5 19.5C16.9183 19.5 20.5 15.9183 20.5 11.5C20.5 7.08172 16.9183 3.5 12.5 3.5Z" fill="black"/>
</svg>

<svg xmlns="http://www.w3.org/2000/svg" width="24" height="24"><path d="M14.357 12.295l-2.135 2.344a.81.81 0 00-.231.549.815.815 0 00.2.561.733.733 0 00.518.25.725.725 0 00.534-.206l3.52-3.711a.827.827 0 000-1.154l-3.52-3.71a.712.712 0 00-.823-.148.75.75 0 00-.239.18.83.83 0 00-.132.87c.042.096.1.181.173.251l2.135 2.345h-5.61a.728.728 0 00-.528.23.813.813 0 00-.219.56c0 .209.079.41.219.557.14.148.33.232.528.232h5.61z"/><path fill-rule="evenodd" d="M3 11.5c0 1.34.278 2.618.78 3.777l-1.698 4.036a1 1 0 001.05 1.38l5.181-.663A9.5 9.5 0 103 11.5zm9.5-8a8 8 0 00-7.218 11.454.75.75 0 01-.045.729l-1.435 3.412 4.547-.582a.746.746 0 01.458.086A8 8 0 1012.5 3.5z"/></svg>
